packages/icons/src/assets/raw/outlined/content/SVG/outlined-content-mirror.svg

<svg xmlns="http://www.w3.org/2000/svg" viewBox="0 0 24 24"><path d="M17.74 21.14H6.67a.51.51 0 0 1-.5-.5.5.5 0 0 1 .5-.5h11.07a.5.5 0 0 1 .5.5.5.5 0 0 1-.5.5z"/><path d="M12.21 21.14a.5.5 0 0 1-.5-.5V19a.5.5 0 0 1 1 0v1.65a.5.5 0 0 1-.5.49z"/><path d="M12.21 19.48a9.09 9.09 0 0 1-9.09-9.08.5.5 0 0 1 .5-.5.5.5 0 0 1 .5.5 8.09 8.09 0 0 0 8.09 8.08 8.08 8.08 0 0 0 8.08-8.08.5.5 0 0 1 .5-.5.5.5 0 0 1 .5.5 9.09 9.09 0 0 1-9.08 9.08z"/><path d="M12.21 17.71a7.31 7.31 0 1 1 7.31-7.31 7.32 7.32 0 0 1-7.31 7.31zm0-13.62a6.31 6.31 0 1 0 6.31 6.31 6.32 6.32 0 0 0-6.31-6.31z"/><path d="M12.21 6.07a.47.47 0 0 1-.35-.15.36.36 0 0 1-.11-.16.41.41 0 0 1 0-.19.43.43 0 0 1 0-.19.36.36 0 0 1 .11-.16.31.31 0 0 1 .14-.11.5.5 0 0 1 .38 0 .36.36 0 0 1 .16.11.51.51 0 0 1 .15.35.58.58 0 0 1 0 .19.36.36 0 0 1-.11.16.42.42 0 0 1-.18.08.43.43 0 0 1-.19.07zM7.38 10.9a.5.5 0 0 1-.5-.5 5.34 5.34 0 0 1 3.92-5.14.5.5 0 1 1 .27 1 4.35 4.35 0 0 0-3.19 4.14.5.5 0 0 1-.5.5z"/></svg>

<svg xmlns="http://www.w3.org/2000/svg" xmlns:xlink="http://www.w3.org/1999/xlink" viewBox="0 0 24 24">
  <defs>
    <clipPath id="a">
      <rect width="24" height="24"/>
    </clipPath>
  </defs>
  <title>outlined-content-mirror</title>
  <g>
    <g style="opacity: 0">
      <g>
        <rect width="24" height="24"/>
        <g style="clip-path: url(#a)">
          <g>
            <rect width="24" height="24"/>
            <path d="M12,21.5A9.5,9.5,0,1,1,21.5,12,9.51,9.51,0,0,1,12,21.5Zm0-18A8.5,8.5,0,1,0,20.5,12,8.51,8.51,0,0,0,12,3.5Z"/>
          </g>
        </g>
      </g>
    </g>
    <g>
      <path d="M17.74,21.14H6.67a.51.51,0,0,1-.5-.5.5.5,0,0,1,.5-.5H17.74a.5.5,0,0,1,.5.5A.5.5,0,0,1,17.74,21.14Z"/>
      <path d="M12.21,21.14a.5.5,0,0,1-.5-.5V19a.5.5,0,0,1,1,0v1.65A.5.5,0,0,1,12.21,21.14Z"/>
      <path d="M12.21,19.48h0A9.09,9.09,0,0,1,3.12,10.4a.5.5,0,0,1,.5-.5.5.5,0,0,1,.5.5,8.09,8.09,0,0,0,8.09,8.08h0a8.08,8.08,0,0,0,8.08-8.08.5.5,0,0,1,.5-.5h0a.5.5,0,0,1,.5.5A9.09,9.09,0,0,1,12.21,19.48Z"/>
      <path d="M12.21,17.71a7.31,7.31,0,1,1,7.31-7.31A7.32,7.32,0,0,1,12.21,17.71Zm0-13.62a6.31,6.31,0,1,0,6.31,6.31A6.32,6.32,0,0,0,12.21,4.09Z"/>
      <path d="M12.21,6.07a.47.47,0,0,1-.35-.15.36.36,0,0,1-.11-.16.41.41,0,0,1,0-.19.43.43,0,0,1,0-.19.36.36,0,0,1,.11-.16A.31.31,0,0,1,12,5.11a.5.5,0,0,1,.38,0,.36.36,0,0,1,.16.11.51.51,0,0,1,.15.35.58.58,0,0,1,0,.19.36.36,0,0,1-.11.16A.42.42,0,0,1,12.4,6,.43.43,0,0,1,12.21,6.07Z"/>
      <path d="M7.38,10.9a.5.5,0,0,1-.5-.5A5.34,5.34,0,0,1,10.8,5.26a.5.5,0,1,1,.27,1A4.35,4.35,0,0,0,7.88,10.4.5.5,0,0,1,7.38,10.9Z"/>
    </g>
  </g>
</svg>
